public/mouse.svg

<svg width="50" height="91" viewBox="0 0 50 91" fill="none" xmlns="http://www.w3.org/2000/svg">
<path fill-rule="evenodd" clip-rule="evenodd" d="M1.37695 35.2971V89.614L43.6186 65.4231V11.1055C29.5381 19.1655 15.4575 27.2294 1.37695 35.2971Z" fill="white" stroke="#D3E5FB"/>
<path fill-rule="evenodd" clip-rule="evenodd" d="M8.57588 48.6377C8.48094 48.6619 8.38928 48.6973 8.30288 48.7432C7.98655 48.9618 7.72317 49.2473 7.53133 49.5791C7.3395 49.9109 7.22403 50.2808 7.19346 50.6621C7.18623 50.7669 7.20684 50.8717 7.25318 50.9662C7.3464 50.9341 7.43757 50.8965 7.52618 50.8535C7.84517 50.6366 8.1111 50.3517 8.30448 50.0195C8.49786 49.6873 8.61372 49.3162 8.6436 48.9338C8.65644 48.8301 8.63292 48.7253 8.57677 48.637L8.57588 48.6377ZM7.24003 52.5023C6.96709 52.5052 6.69854 52.4348 6.46262 52.2986C6.18878 52.1249 5.96709 51.8814 5.82082 51.5934C5.67454 51.3055 5.60899 50.9838 5.63117 50.6621C5.66133 50.0085 5.84892 49.3716 6.17824 48.8048C6.50757 48.2379 6.96911 47.7577 7.52405 47.4041C7.78774 47.2098 8.10288 47.0961 8.43085 47.0771C8.75882 47.0581 9.08528 47.1345 9.37 47.2971C9.65472 47.4597 9.88535 47.7014 10.0335 47.9923C10.1816 48.2832 10.2408 48.6107 10.2037 48.9345C10.1736 49.5891 9.98517 50.2269 9.65419 50.794C9.32322 51.361 8.85944 51.8407 8.30217 52.1925C7.9818 52.3874 7.61573 52.4943 7.24003 52.5023Z" fill="#345BE4"/>
<path fill-rule="evenodd" clip-rule="evenodd" d="M8.3036 58.0164C7.98718 58.2352 7.72371 58.5208 7.53187 58.8527C7.34003 59.1846 7.22464 59.5546 7.19418 59.936C7.18594 60.0406 7.2066 60.1455 7.2539 60.2394C7.34987 60.215 7.44181 60.1771 7.5269 60.1267C7.84568 59.9114 8.1116 59.6276 8.30502 59.2966C8.49844 58.9656 8.61436 58.5957 8.64431 58.2142C8.64431 58.0163 8.59787 57.9254 8.57749 57.911C8.4826 57.9353 8.39096 57.9706 8.30449 58.0164H8.3036ZM7.24003 61.7755C6.96715 61.7773 6.69884 61.7067 6.46262 61.5712C6.18879 61.3976 5.96711 61.1541 5.82082 60.8663C5.67454 60.5785 5.60897 60.2569 5.63118 59.9353C5.66211 59.2819 5.85006 58.6453 6.17931 58.0785C6.50857 57.5118 6.96966 57.0315 7.52405 56.6774C7.78827 56.4828 8.10409 56.3691 8.43263 56.3504C8.76118 56.3317 9.08795 56.4088 9.37285 56.5722C9.65775 56.7356 9.88834 56.9782 10.036 57.2699C10.1836 57.5617 10.2419 57.89 10.2038 58.2142C10.1723 58.8674 9.98316 59.5036 9.65225 60.0692C9.32134 60.6347 8.85833 61.1132 8.30218 61.4642C7.98211 61.6594 7.61561 61.7668 7.24003 61.7755Z" fill="#345BE4"/>
<path fill-rule="evenodd" clip-rule="evenodd" d="M8.57586 67.7665C8.4808 67.7903 8.3891 67.8257 8.30286 67.872C7.9865 68.0906 7.72298 68.3761 7.53114 68.7079C7.3393 69.0397 7.22396 69.4096 7.19344 69.7909C7.18611 69.8957 7.20672 70.0006 7.25316 70.095C7.34912 70.0709 7.44107 70.0332 7.52616 69.983C7.84515 69.7662 8.11108 69.4812 8.30446 69.149C8.49784 68.8168 8.6137 68.4458 8.64358 68.0634C8.65491 67.96 8.63151 67.8559 8.57675 67.7672L8.57586 67.7665ZM7.24001 71.6311C6.96699 71.6339 6.69841 71.5633 6.4626 71.4268C6.18882 71.2532 5.96708 71.0097 5.8208 70.7219C5.67452 70.4341 5.60903 70.1125 5.63116 69.7909C5.66203 69.1375 5.85003 68.5009 6.17929 67.9341C6.50855 67.3674 6.96959 66.887 7.52403 66.533C7.78768 66.3386 8.10276 66.225 8.43065 66.206C8.75854 66.187 9.08494 66.2634 9.36962 66.4259C9.65431 66.5884 9.88491 66.8299 10.0331 67.1207C10.1813 67.4114 10.2406 67.7389 10.2037 68.0627C10.1736 68.7173 9.98515 69.355 9.65418 69.9221C9.3232 70.4892 8.85942 70.9688 8.30215 71.3206C7.98184 71.5156 7.61503 71.6225 7.2393 71.6304L7.24001 71.6311Z" fill="#345BE4"/>
<path fill-rule="evenodd" clip-rule="evenodd" d="M13.7952 47.7025C13.6574 47.7035 13.5219 47.668 13.4026 47.5996C13.2833 47.5311 13.1846 47.4323 13.1168 47.3132C13.0143 47.1344 12.9869 46.9227 13.0406 46.724C13.0942 46.5252 13.2247 46.3556 13.4037 46.2516L37.8812 32.2361C38.0602 32.1338 38.2729 32.1061 38.4724 32.1593C38.6719 32.2124 38.842 32.342 38.9452 32.5196C39.0484 32.6971 39.0762 32.9081 39.0227 33.106C38.9691 33.304 38.8383 33.4728 38.6594 33.5751L14.1818 47.597C14.064 47.6641 13.931 47.7004 13.7952 47.7025Z" fill="#345BE4"/>
<path fill-rule="evenodd" clip-rule="evenodd" d="M13.7952 57.5496C13.6579 57.552 13.5225 57.5178 13.4031 57.4505C13.2838 57.3831 13.1849 57.2851 13.1168 57.1668C13.0143 56.988 12.9869 56.7763 13.0406 56.5776C13.0942 56.3789 13.2247 56.2092 13.4037 56.1052L37.8812 42.0839C38.0605 41.9888 38.27 41.9666 38.4655 42.0222C38.6609 42.0778 38.8269 42.2067 38.9281 42.3817C39.0293 42.5566 39.0579 42.7638 39.0077 42.9593C38.9576 43.1548 38.8326 43.3232 38.6594 43.4288L14.1818 57.4506C14.0635 57.5157 13.9305 57.5498 13.7952 57.5496Z" fill="#345BE4"/>
<path fill-rule="evenodd" clip-rule="evenodd" d="M13.7964 66.8288C13.6585 66.8299 13.5229 66.7943 13.4036 66.7257C13.2842 66.6571 13.1856 66.558 13.1179 66.4388C13.016 66.2598 12.9889 66.0483 13.0426 65.8498C13.0962 65.6512 13.2263 65.4815 13.4048 65.3771L30.8491 55.3858C31.0288 55.285 31.2414 55.2587 31.4406 55.3125C31.6398 55.3663 31.8097 55.496 31.913 55.6733C32.0163 55.8507 32.0448 56.0613 31.9925 56.2594C31.9401 56.4576 31.8109 56.6272 31.6331 56.7314L14.1822 66.7233C14.0659 66.7931 13.9323 66.8297 13.7964 66.8288Z" fill="#345BE4"/>
<path d="M44.5516 1.09874L48.5396 3.3831C48.6213 3.43976 48.6863 3.51706 48.7279 3.60694C48.7695 3.69682 48.7862 3.79603 48.7762 3.89444V23.9614C48.7762 33.2694 34.9216 48.41 34.3298 49.0521C34.237 49.1535 34.1299 49.2408 34.0116 49.3114C33.9161 49.3702 33.8079 49.4056 33.6958 49.4146C33.3121 49.4377 27.3271 49.7526 23.1833 47.4163L19.1481 45.1052C17.949 44.4903 16.9487 43.5531 16.2615 42.4006C15.5742 41.2482 15.2279 39.9271 15.2621 38.5885V18.5208C15.2877 18.2465 15.3754 17.9815 15.5189 17.7456C15.6624 17.5098 15.8578 17.3091 16.0905 17.1587C21.6233 13.9932 26.7775 9.509 29.5505 5.45878C29.8308 5.04928 30.2232 4.82828 30.5042 4.9135C33.2706 5.78739 38.4256 4.36753 44.0021 1.17314C44.0779 1.10897 44.1709 1.06791 44.2698 1.0551C44.3686 1.04228 44.469 1.05817 44.5589 1.10085L44.5516 1.09874Z" fill="white"/>
<path d="M16.0859 17.1587C21.6187 13.9932 26.7729 9.50883 29.5459 5.45861C29.8262 5.04911 30.2186 4.8281 30.4996 4.91333C33.266 5.78722 38.421 4.36736 43.9982 1.17297C44.0739 1.10886 44.1668 1.06792 44.2655 1.0551C44.3642 1.04228 44.4647 1.05815 44.5545 1.10077L48.5423 3.38513C48.4531 3.34375 48.3538 3.3286 48.2562 3.3414C48.1585 3.3542 48.0667 3.39438 47.9913 3.45733C42.4127 6.65172 37.2628 8.07239 34.4913 7.19778C34.2096 7.10967 33.8186 7.33493 33.5376 7.74226C30.7654 11.7947 25.6097 16.2775 20.0776 19.4423C19.8445 19.5921 19.6488 19.7926 19.5055 20.0286C19.3622 20.2646 19.275 20.53 19.2506 20.8044V40.875C19.2171 42.2238 19.5694 43.5544 20.2667 44.7128C20.964 45.8712 21.9776 46.81 23.1904 47.4205H23.1855L19.15 45.1093C17.951 44.4945 16.9507 43.5572 16.2634 42.4048C15.5762 41.2523 15.2299 39.9313 15.264 38.5927V18.5201C15.2889 18.2464 15.3757 17.9818 15.518 17.7461C15.6603 17.5104 15.8544 17.3096 16.0859 17.1587Z" fill="#4069FA"/>
<path d="M32.6634 49.7649C33.2735 49.7649 33.6571 49.7432 33.7183 49.7389C33.8825 49.7268 34.0414 49.6761 34.182 49.5909C34.3277 49.5048 34.46 49.398 34.5744 49.2739C35.1721 48.6239 49.1112 33.3987 49.109 23.9599V3.89518C49.1199 3.73926 49.0884 3.58327 49.0178 3.44352C48.9473 3.30378 48.8403 3.18544 48.7078 3.10075L44.7198 0.816301L44.7001 0.80625C44.5589 0.738292 44.4014 0.710918 44.2453 0.727257C44.0892 0.743596 43.9409 0.802944 43.8171 0.898644C38.3615 4.02514 33.2866 5.44864 30.601 4.60003C30.3368 4.56121 30.067 4.60513 29.8293 4.72566C29.5915 4.84619 29.3976 5.03735 29.2745 5.27244C26.5263 9.288 21.4121 13.734 15.9215 16.875C15.6387 17.0537 15.4018 17.2952 15.2294 17.5805C15.0571 17.8659 14.954 18.1871 14.9285 18.5188V38.59C14.8905 39.9826 15.2483 41.3579 15.9608 42.5584C16.6734 43.7589 17.7121 44.7363 18.9581 45.3789L18.9807 45.3933L23.0167 47.7044C23.0326 47.7133 23.049 47.7211 23.0661 47.7276C26.3181 49.5375 30.6781 49.7649 32.6634 49.7649ZM44.4069 1.3905L48.3773 3.66552C48.4129 3.68646 48.4501 3.76444 48.4501 3.89227V23.9606C48.4501 33.148 34.6763 48.1956 34.0888 48.8304C34.0188 48.9073 33.9378 48.9736 33.8485 49.0275C33.7968 49.0601 33.7384 49.0807 33.6776 49.0875C33.4242 49.1034 27.429 49.4334 23.3464 47.1324C23.3321 47.1244 23.3174 47.1175 23.3021 47.1115L19.3308 44.8358L19.3076 44.8206C18.1593 44.2339 17.2009 43.3379 16.5425 42.2355C15.8842 41.133 15.5524 39.8688 15.5853 38.5878V18.5166C15.6104 18.2989 15.6829 18.0894 15.7978 17.9023C15.9127 17.7153 16.0673 17.5552 16.2507 17.4332C21.8184 14.2453 27.0171 9.72281 29.817 5.63214C30.0354 5.31509 30.3002 5.18724 30.3992 5.2154C33.2545 6.11673 38.5275 4.67303 44.1586 1.44542C44.2765 1.3732 44.355 1.35652 44.3827 1.37313L44.4038 1.38759L44.4069 1.3905Z" fill="#345BE4"/>
<path d="M34.0159 31.6413L42.9704 16.1294L41.7589 15.4375L34.0152 28.8708L29.2395 26.1408L28.0273 28.2165L34.0159 31.6413Z" fill="#345BE4"/>
</svg>

<svg xmlns="http://www.w3.org/2000/svg" width="50" height="91" fill="none" viewBox="0 0 50 91"><path fill="#fff" fill-rule="evenodd" stroke="#d3e5fb" d="M1.377 35.297v54.317l42.242-24.19V11.104q-21.12 12.09-42.242 24.192Z" clip-rule="evenodd"/><path fill="#345be4" fill-rule="evenodd" d="M8.576 48.638q-.143.037-.273.105a2.6 2.6 0 0 0-1.11 1.92.6.6 0 0 0 .06.303 3 3 0 0 0 .273-.113 2.58 2.58 0 0 0 1.118-1.92.45.45 0 0 0-.067-.296zM7.24 52.502a1.5 1.5 0 0 1-.777-.203 1.8 1.8 0 0 1-.832-1.637 4.1 4.1 0 0 1 .547-1.857 4.1 4.1 0 0 1 1.346-1.4 1.694 1.694 0 0 1 2.51.587c.148.291.207.619.17.943a4.06 4.06 0 0 1-.55 1.859 4.1 4.1 0 0 1-1.352 1.399 2.13 2.13 0 0 1-1.062.31M8.304 58.016a2.6 2.6 0 0 0-1.11 1.92.6.6 0 0 0 .06.303q.145-.036.273-.112a2.56 2.56 0 0 0 1.117-1.913c0-.198-.046-.289-.067-.303a1.2 1.2 0 0 0-.273.105m-1.064 3.76a1.54 1.54 0 0 1-.777-.205 1.783 1.783 0 0 1-.831-1.636 4.1 4.1 0 0 1 .547-1.857c.33-.566.79-1.047 1.345-1.4a1.695 1.695 0 0 1 2.512.592c.148.292.206.62.168.944a4.06 4.06 0 0 1-.552 1.855 4.1 4.1 0 0 1-1.35 1.395c-.32.195-.686.303-1.062.312M8.576 67.767q-.143.035-.273.105a2.6 2.6 0 0 0-1.11 1.919.6.6 0 0 0 .06.304q.145-.037.273-.112a2.58 2.58 0 0 0 1.118-1.92.47.47 0 0 0-.067-.296zM7.24 71.63a1.5 1.5 0 0 1-.777-.204 1.784 1.784 0 0 1-.831-1.636 4.1 4.1 0 0 1 .547-1.857c.33-.567.79-1.047 1.345-1.401a1.693 1.693 0 0 1 2.51.588c.147.29.207.618.17.942a4.06 4.06 0 0 1-.55 1.86 4.1 4.1 0 0 1-1.352 1.398 2.13 2.13 0 0 1-1.063.31zM13.795 47.703a.78.78 0 0 1-.678-.39.777.777 0 0 1 .287-1.061L37.88 32.236a.785.785 0 0 1 1.064.284.77.77 0 0 1-.286 1.055L14.182 47.597a.8.8 0 0 1-.387.105M13.795 57.55a.77.77 0 0 1-.678-.383.777.777 0 0 1 .287-1.062L37.88 42.084a.79.79 0 0 1 1.047.298.77.77 0 0 1-.269 1.047L14.182 57.45a.8.8 0 0 1-.387.099M13.796 66.829a.776.776 0 0 1-.753-.98.79.79 0 0 1 .362-.472l17.444-9.991a.79.79 0 0 1 1.064.287.77.77 0 0 1-.28 1.058l-17.45 9.992a.74.74 0 0 1-.387.106" clip-rule="evenodd"/><path fill="#fff" d="m44.552 1.099 3.988 2.284a.56.56 0 0 1 .236.511v20.067c0 9.308-13.854 24.449-14.446 25.091q-.14.153-.318.26a.7.7 0 0 1-.316.103c-.384.023-6.369.338-10.513-1.999l-4.035-2.31a7.17 7.17 0 0 1-2.886-2.705 7.1 7.1 0 0 1-1-3.812V18.52a1.82 1.82 0 0 1 .828-1.362c5.533-3.166 10.688-7.65 13.46-11.7.28-.41.673-.63.954-.545 2.767.873 7.922-.546 13.498-3.74a.52.52 0 0 1 .557-.073z"/><path fill="#4069fa" d="M16.086 17.159c5.533-3.166 10.687-7.65 13.46-11.7.28-.41.673-.63.954-.546 2.766.874 7.921-.546 13.498-3.74a.52.52 0 0 1 .556-.072l3.988 2.284a.52.52 0 0 0-.55.072c-5.58 3.195-10.73 4.615-13.5 3.74-.282-.087-.673.138-.954.545-2.773 4.053-7.928 8.535-13.46 11.7a1.82 1.82 0 0 0-.827 1.362v20.071a7.1 7.1 0 0 0 1.016 3.838 7.2 7.2 0 0 0 2.923 2.707h-.005l-4.035-2.31a7.17 7.17 0 0 1-2.887-2.705 7.1 7.1 0 0 1-.999-3.812V18.52a1.82 1.82 0 0 1 .822-1.361"/><path fill="#345be4" d="M32.663 49.765c.61 0 .994-.022 1.055-.026.164-.012.323-.063.464-.148q.22-.13.392-.317c.598-.65 14.537-15.875 14.535-25.314V3.895a.87.87 0 0 0-.401-.794L44.72.816l-.02-.01a.85.85 0 0 0-.883.093c-5.456 3.126-10.53 4.55-13.216 3.701a1.29 1.29 0 0 0-1.326.672c-2.749 4.016-7.863 8.462-13.353 11.603a2.15 2.15 0 0 0-.994 1.644V38.59a7.4 7.4 0 0 0 1.033 3.968 7.46 7.46 0 0 0 2.997 2.82l.023.015 4.036 2.311a.4.4 0 0 0 .05.024c3.251 1.81 7.611 2.037 9.596 2.037M44.407 1.39l3.97 2.275c.036.02.073.098.073.226v20.069c0 9.187-13.774 24.235-14.361 24.87q-.106.115-.24.197a.4.4 0 0 1-.171.06c-.254.015-6.249.345-10.332-1.956l-.044-.02-3.971-2.276-.023-.015a6.85 6.85 0 0 1-2.765-2.585 6.78 6.78 0 0 1-.958-3.648V18.517a1.5 1.5 0 0 1 .666-1.084c5.567-3.188 10.766-7.71 13.566-11.8.218-.318.483-.446.582-.418 2.855.902 8.129-.542 13.76-3.77.117-.072.196-.088.224-.072l.02.015z"/><path fill="#345be4" d="M34.016 31.641 42.97 16.13l-1.211-.692-7.744 13.434-4.776-2.73-1.212 2.076z"/></svg>
